dist/images/svg/xls.svg

<?xml version="1.0" encoding="UTF-8"?>
<svg width="38px" height="48px" viewBox="0 0 38 48" version="1.1" xmlns="http://www.w3.org/2000/svg" xmlns:xlink="http://www.w3.org/1999/xlink">
    <!-- Generator: Sketch 49.1 (51147) - http://www.bohemiancoding.com/sketch -->
    <title>xls</title>
    <desc>Created with Sketch.</desc>
    <defs>
        <path d="M36,38 L36,13 L25,13 L25,2 L2,2 L2,46 L16,46 L16,48 L27,48 L0,48 L0,0 L27.006897,0 L38,11.0142212 L38,48 L27,48 L38,48 L38,38 L36,38 Z M27.006897,3.0189209 L27.006897,11.0142212 L35.0204468,11.0142212 L27.006897,3.0189209 Z M7.90909091,14 L16.0909091,14 C16.5927273,14 17,13.553 17,13 C17,12.447 16.5927273,12 16.0909091,12 L7.90909091,12 C7.40727273,12 7,12.447 7,13 C7,13.553 7.40727273,14 7.90909091,14 Z M7.90909091,20 L29.0909091,20 C29.5927273,20 30,19.553 30,19 C30,18.447 29.5927273,18 29.0909091,18 L7.90909091,18 C7.40727273,18 7,18.447 7,19 C7,19.553 7.40727273,20 7.90909091,20 Z M7.90909091,26 L29.0909091,26 C29.5927273,26 30,25.553 30,25 C30,24.447 29.5927273,24 29.0909091,24 L7.90909091,24 C7.40727273,24 7,24.447 7,25 C7,25.553 7.40727273,26 7.90909091,26 Z M7.90909091,32 L29.0909091,32 C29.5927273,32 30,31.553 30,31 C30,30.447 29.5927273,30 29.0909091,30 L7.90909091,30 C7.40727273,30 7,30.447 7,31 C7,31.553 7.40727273,32 7.90909091,32 Z M20.673,43.963 L18.517,40.3 L19.958,40.3 L21.476,42.907 L23.016,40.3 L24.424,40.3 L22.257,43.93 L24.644,48 L23.181,48 L21.454,44.997 L19.705,48 L18.297,48 L20.673,43.963 Z M25.887,40.3 L27.196,40.3 L27.196,46.878 L30.727,46.878 L30.727,48 L25.887,48 L25.887,40.3 Z M34.247,48.088 C33.7629976,48.088 33.3450018,48.0348339 32.993,47.9285 C32.6409982,47.8221661 32.3495012,47.670001 32.1185,47.472 C31.8874988,47.273999 31.7151672,47.0393347 31.6015,46.768 C31.4878328,46.4966653 31.4236667,46.1960016 31.409,45.866 L32.729,45.866 C32.7583335,46.1886683 32.8829989,46.448999 33.103,46.647 C33.3230011,46.845001 33.7043306,46.944 34.247,46.944 C34.8043361,46.944 35.1984988,46.8486676 35.4295,46.658 C35.6605012,46.4673324 35.776,46.2290014 35.776,45.943 C35.776,45.7669991 35.7485003,45.6130007 35.6935,45.481 C35.6384997,45.3489993 35.541334,45.2316672 35.402,45.129 C35.262666,45.0263328 35.0775012,44.9328338 34.8465,44.8485 C34.6154988,44.7641662 34.3203351,44.6816671 33.961,44.601 C33.5869981,44.5056662 33.2533348,44.3956673 32.96,44.271 C32.6666652,44.1463327 32.4191677,43.9941676 32.2175,43.8145 C32.0158323,43.6348324 31.8636672,43.4203346 31.761,43.171 C31.6583328,42.9216654 31.607,42.628335 31.607,42.291 C31.607,41.9903318 31.6601661,41.7116679 31.7665,41.455 C31.8728339,41.198332 32.0359989,40.9783343 32.256,40.795 C32.4760011,40.6116658 32.7509983,40.4686672 33.081,40.366 C33.4110016,40.2633328 33.7996644,40.212 34.247,40.212 C34.6943356,40.212 35.0829983,40.2633328 35.413,40.366 C35.7430016,40.4686672 36.0179989,40.6153324 36.238,40.806 C36.4580011,40.9966676 36.6248328,41.2239987 36.7385,41.488 C36.8521672,41.7520013 36.9163333,42.0453317 36.931,42.368 L35.611,42.368 C35.5816665,42.0673318 35.4661677,41.8235009 35.2645,41.6365 C35.0628323,41.4494991 34.723669,41.356 34.247,41.356 C33.7849977,41.356 33.4476677,41.4458324 33.235,41.6255 C33.0223323,41.8051676 32.916,42.0269987 32.916,42.291 C32.916,42.4596675 32.9434997,42.6044994 32.9985,42.7255 C33.0535003,42.8465006 33.1469993,42.9546662 33.279,43.05 C33.4110007,43.1453338 33.5833323,43.2296663 33.796,43.303 C34.0086677,43.3763337 34.2726651,43.4496663 34.588,43.523 C35.0133355,43.6256672 35.3818318,43.7429993 35.6935,43.875 C36.0051682,44.0070007 36.265499,44.1683324 36.4745,44.359 C36.683501,44.5496676 36.8393328,44.7733321 36.942,45.03 C37.0446672,45.286668 37.096,45.5909982 37.096,45.943 C37.096,46.2510015 37.0391672,46.5369987 36.9255,46.801 C36.8118328,47.0650013 36.6376678,47.2923324 36.403,47.483 C36.1683322,47.6736676 35.8713351,47.8221661 35.512,47.9285 C35.1526649,48.0348339 34.7310024,48.088 34.247,48.088 Z" id="path-1"></path>
    </defs>
    <g id="Symbols" stroke="none" stroke-width="1" fill="none" fill-rule="evenodd">
        <g id="File-type-/-XLS">
            <mask id="mask-2" fill="white">
                <use xlink:href="#path-1"></use>
            </mask>
            <use id="Shape" fill="#1B39BA" fill-rule="nonzero" xlink:href="#path-1"></use>
            <rect id="Rectangle-2" fill="#40B550" mask="url(#mask-2)" x="16" y="38" width="22" height="10"></rect>
        </g>
    </g>
</svg>

<svg width="38" height="48" viewBox="0 0 38 48" xmlns="http://www.w3.org/2000/svg" xmlns:xlink="http://www.w3.org/1999/xlink"><title>xls</title><defs><path d="M36 38V13H25V2H2v44h14v2h11H0V0h27.007L38 11.014V48H27h11V38h-2zM27.007 3.019v7.995h8.013L27.007 3.02zM7.909 14h8.182c.502 0 .909-.447.909-1 0-.553-.407-1-.91-1H7.91c-.503 0-.91.447-.91 1 0 .553.407 1 .91 1zm0 6h21.182c.502 0 .909-.447.909-1 0-.553-.407-1-.91-1H7.91c-.503 0-.91.447-.91 1 0 .553.407 1 .91 1zm0 6h21.182c.502 0 .909-.447.909-1 0-.553-.407-1-.91-1H7.91c-.503 0-.91.447-.91 1 0 .553.407 1 .91 1zm0 6h21.182c.502 0 .909-.447.909-1 0-.553-.407-1-.91-1H7.91c-.503 0-.91.447-.91 1 0 .553.407 1 .91 1zm12.764 11.963L18.517 40.3h1.441l1.518 2.607 1.54-2.607h1.408l-2.167 3.63L24.644 48h-1.463l-1.727-3.003L19.705 48h-1.408l2.376-4.037zm5.214-3.663h1.309v6.578h3.531V48h-4.84v-7.7zm8.36 7.788c-.484 0-.902-.053-1.254-.16a2.383 2.383 0 0 1-.875-.456 1.869 1.869 0 0 1-.517-.704 2.618 2.618 0 0 1-.192-.902h1.32c.03.323.154.583.374.781.22.198.601.297 1.144.297.557 0 .951-.095 1.182-.286a.89.89 0 0 0 .347-.715c0-.176-.027-.33-.083-.462a.846.846 0 0 0-.291-.352 2.231 2.231 0 0 0-.556-.28 7.334 7.334 0 0 0-.885-.248 6.966 6.966 0 0 1-1.001-.33 2.682 2.682 0 0 1-.742-.456 1.737 1.737 0 0 1-.457-.644 2.302 2.302 0 0 1-.154-.88c0-.3.053-.58.16-.836.106-.257.269-.477.489-.66.22-.183.495-.326.825-.429.33-.103.719-.154 1.166-.154.447 0 .836.051 1.166.154.33.103.605.25.825.44.22.19.387.418.5.682.114.264.178.557.193.88h-1.32c-.03-.3-.145-.544-.346-.732-.202-.187-.541-.28-1.018-.28-.462 0-.8.09-1.012.27a.838.838 0 0 0-.319.665c0 .169.027.313.083.434a.82.82 0 0 0 .28.325c.132.095.304.18.517.253.213.073.477.147.792.22.425.103.794.22 1.105.352.312.132.572.293.782.484.209.19.364.414.467.671.103.257.154.561.154.913 0 .308-.057.594-.17.858a1.775 1.775 0 0 1-.523.682 2.55 2.55 0 0 1-.891.446c-.36.106-.781.159-1.265.159z" id="a"/></defs><g fill="none" fill-rule="evenodd"><mask id="b" fill="#fff"><use xlink:href="#a"/></mask><use fill="#1B39BA" fill-rule="nonzero" xlink:href="#a"/><path fill="#40B550" mask="url(#b)" d="M16 38h22v10H16z"/></g></svg>
